X:1
T:St. Mabyn, 87.87
T:St. Mabyn, 87.87
T:Arthur Henry Brown , 1897
T:Public Domain Courtesy of the Cyber Hymnal™
C:Arthur Henry Brown , 1897
Z:Public Domain
Z:Courtesy of the Cyber Hymnal™
%%score ( 1 2 ) ( 3 4 )
L:1/8
Q:1/4=110
M:4/4
K:G
V:1 treble 
V:2 treble 
V:3 bass 
V:4 bass 
V:1
 [GB]3 [GB] [FA]2 G2 | [Gd]2 [GB]2 [GB]2 [FA]2 | c3 z c [GB]2 E2 | [DF]2 [^CG]2 [DF]4 | %4
 [FA]3 [FA] [EA]2 [EB]2 | [Ec]2 [EA]2 [DG]2 [DF]2 x2 | G2 [Gd]2 [Gd]3 [Ac] | [GB]2 [FA]2 G4 x |] %8
V:2
 x6 G2 | x8 | E2 (F2 x E2) x2 | x8 | x8 | x10 | G2 x6 | x4 G4 x |] %8
V:3
 [G,D]3 [G,D] [D,C]2 [E,B,]2 | [B,,D]2 [G,,D]2 [D,D]2 [D,D]2 | [A,C]3 [A,C] [B,D]2 [G,B,]2 x | %3
 A,2 [A,,A,]2 [D,A,]4 | [D,D]3 [D,D] [C,E]2 [^G,,D]2 | [A,,C]2 [C,C]2 B,2 z x3 | %6
 [B,,D]2 [B,,=F]2 [C,E]3 [C,E] | D3 z C [G,,B,]4 |] %8
V:4
 x8 | x8 | x9 | A,2 x6 | x8 | x4 D,3 (B,2 C,) | x8 | D,2 D,2 x5 |] %8

